X: 5014
T: Breuddwyd Y Frenhines
R: polka
M: 2/4
K: Gmajor
d>e dc|B2 GA/B/|cB AG|F2 D2|EF GA|B2 d2|cB A>G|G3 z||
d>e dc|B2 GA/B/|cB AG|F2 D2|EF GA|B2 dd|cB A>G|G3 z||
Bc dc|Bc dc|Be dc|B2 G2|AB cB|AB cB|Ad cB|A2 F2|G>A GF
E2 EE|A>B AG|F2 D2|EF GA|B2 d2|cB A>G|G2 z2||

